;FLAVOR:Marlin
;TIME:27287
;Filament used: 22.1214m
;Layer height: 0.2
;MINX:105.136
;MINY:44.336
;MINZ:0.24
;MAXX:195.665
;MAXY:255.645
;MAXZ:31.09
;TARGET_MACHINE.NAME:Creality CR-10
;Generated with Cura_SteamEngine 5.7.1
M140 S50
M105
M190 S50
M104 S200
M105
M109 S200
M82 ;absolute extrusion mode
M201 X500.00 Y500.00 Z100.00 E5000.00 ;Setup machine max acceleration
M203 X500.00 Y500.00 Z10.00 E50.00 ;Setup machine max feedrate
M204 P500.00 R1000.00 T500.00 ;Setup Print/Retract/Travel acceleration
M205 X8.00 Y8.00 Z0.40 E5.00 ;Setup Jerk
M220 S100 ;Reset Feedrate
M221 S100 ;Reset Flowrate

G28 ;Home

G92 E0 ;Reset Extruder
G1 Z2.0 F3000 ;Move Z Axis up
G1 X10.1 Y20 Z0.28 F5000.0 ;Move to start position
G1 X10.1 Y200.0 Z0.28 F1500.0 E15 ;Draw the first line
G1 X10.4 Y200.0 Z0.28 F5000.0 ;Move to side a little
G1 X10.4 Y20 Z0.28 F1500.0 E30 ;Draw the second line
G92 E0 ;Reset Extruder
G1 Z2.0 F3000 ;Move Z Axis up

G92 E0
G92 E0
G1 F2700 E-5
;LAYER_COUNT:150
;LAYER:-6
M107
G0 F9000 X106.826 Y53.715 Z0.24
;TYPE:SUPPORT-INTERFACE
G1 F2700 E0
G1 F1125 X107.262 Y52.864 E0.07633
G1 X107.826 Y51.938 E0.16288
G1 X108.505 Y51.002 E0.25518
G1 X109.075 Y50.315 E0.32644
G1 X109.804 Y49.551 E0.41073
G1 X110.602 Y48.827 E0.49674
G1 X111.427 Y48.185 E0.58019
G1 X112.331 Y47.577 E0.66715
G1 X113.248 Y47.056 E0.75134
G1 X113.593 Y46.876 E0.7824
G1 X113.602 Y46.882 E0.78327
G1 X114.21 Y46.601 E0.83673
G1 X115.248 Y46.195 E0.9257
G1 X116.192 Y45.907 E1.00448
G1 X117.252 Y45.662 E1.09133
G1 X118.357 Y45.493 E1.18056
G1 X118.639 Y45.458 E1.20324
G1 X118.649 Y45.468 E1.20437
G1 X119.561 Y45.408 E1.27733
G1 X180.003 Y45.4 E6.10207
G1 X181.145 Y45.448 E6.19331
G1 X182.207 Y45.568 E6.27862
G1 X183.226 Y45.763 E6.36144
G1 X184.306 Y46.051 E6.45066
G1 X185.295 Y46.398 E6.53433
G1 X186.194 Y46.779 E6.61227
G1 X187.132 Y47.262 E6.69649
G1 X188.058 Y47.826 E6.78304
G1 X188.994 Y48.505 E6.87534
G1 X189.681 Y49.075 E6.9466
G1 X190.445 Y49.804 E7.03089
G1 X191.169 Y50.602 E7.1169
G1 X191.827 Y51.447 E7.20239
G1 X192.423 Y52.335 E7.28776
G1 X192.94 Y53.248 E7.37152
G1 X193.12 Y53.593 E7.40258
G1 X193.114 Y53.602 E7.40344
G1 X193.4 Y54.211 E7.45715
G1 X193.805 Y55.247 E7.54594
G1 X194.089 Y56.191 E7.62463
G1 X194.366 Y57.386 E7.72255
G1 X194.51 Y58.379 E7.80264
G1 X194.592 Y59.542 E7.89571
G1 X194.599 Y59.942 E7.92765
G1 X194.6 Y239.984 E22.29938
G1 X194.56 Y240.99 E22.37974
G1 X194.428 Y242.205 E22.4773
G1 X194.261 Y243.097 E22.54974
G1 X193.999 Y244.115 E22.63365
G1 X193.68 Y245.084 E22.71508
G1 X193.216 Y246.195 E22.81119
G1 X192.738 Y247.128 E22.89487
G1 X192.229 Y247.964 E22.973
G1 X191.554 Y248.924 E23.06668
G1 X190.921 Y249.681 E23.14545
G1 X190.134 Y250.507 E23.23652
G1 X189.284 Y251.259 E23.32711
G1 X188.573 Y251.811 E23.39897
G1 X187.67 Y252.418 E23.48582
G1 X186.593 Y253.019 E23.58427
G1 X185.789 Y253.396 E23.65515
G1 X184.749 Y253.805 E23.74436
G1 X183.805 Y254.089 E23.82305
G1 X182.744 Y254.335 E23.90999
G1 X181.615 Y254.51 E24.00119
G1 X180.438 Y254.592 E24.09537
G1 X179.936 Y254.6 E24.13545
G1 X119.993 Y254.596 E28.92036
G1 X118.851 Y254.548 E29.0116
G1 X117.793 Y254.428 E29.09659
G1 X116.77 Y254.233 E29.17972
G1 X115.69 Y253.945 E29.26894
G1 X114.701 Y253.602 E29.3525
G1 X113.803 Y253.217 E29.4305
G1 X112.864 Y252.734 E29.51479
G1 X111.93 Y252.166 E29.60205
G1 X111.002 Y251.492 E29.6936
G1 X110.314 Y250.92 E29.76502
G1 X109.543 Y250.188 E29.84988
G1 X108.835 Y249.402 E29.93433
G1 X108.177 Y248.561 E30.01957
G1 X107.577 Y247.661 E30.10591
G1 X107.02 Y246.683 E30.19575
G1 X106.581 Y245.747 E30.27828
G1 X106.155 Y244.643 E30.37273
G1 X105.907 Y243.805 E30.4425
G1 X105.634 Y242.635 E30.5384
G1 X105.458 Y241.351 E30.64185
G1 X105.468 Y241.341 E30.64298
G1 X105.408 Y240.455 E30.71387
G1 X105.4 Y60.012 E45.11761
G1 X105.436 Y59.009 E45.19772
G1 X105.568 Y57.791 E45.29552
G1 X105.735 Y56.899 E45.36796
G1 X106.02 Y55.784 E45.45982
G1 X106.393 Y54.714 E45.55028
G1 X106.826 Y53.715 E45.63719
G0 F9000 X107.528 Y53.222
G1 F1125 X194.2 Y139.894 E55.42147
G1 F2700 E50.42147
G0 F9000 X194.2 Y142.157
G1 F2700 E55.42147
G1 F1125 X106.807 Y54.764 E65.28715
G1 F2700 E60.28715
G0 F9000 X106.256 Y56.475
G1 F2700 E65.28715
G1 F1125 X194.2 Y144.419 E75.21503
G1 F2700 E70.21503
G0 F9000 X194.2 Y146.682
G1 F2700 E75.21503
G1 F1125 X105.906 Y58.388 E85.18242
G1 F2700 E80.18242
G0 F9000 X105.8 Y60.545
G1 F2700 E85.18242
G1 F1125 X194.2 Y148.945 E95.16178
G1 F2700 E90.16178
G0 F9000 X194.2 Y151.208
G1 F2700 E95.16178
G1 F1125 X105.8 Y62.808 E105.14113
G1 F2700 E100.14113
G0 F9000 X105.8 Y65.071
G1 F2700 E105.14113
G1 F1125 X194.2 Y153.47 E115.12043
G1 F2700 E110.12043
G0 F9000 X194.2 Y155.733
G1 F2700 E115.12043
G1 F1125 X105.8 Y67.334 E125.09973
G1 F2700 E120.09973
G0 F9000 X105.8 Y69.596
G1 F2700 E125.09973
G1 F1125 X194.2 Y157.996 E135.07909
G1 F2700 E130.07909
G0 F9000 X194.2 Y160.259
G1 F2700 E135.07909
G1 F1125 X105.8 Y71.859 E145.05844
G1 F2700 E140.05844
G0 F9000 X105.8 Y74.122
G1 F2700 E145.05844
G1 F1125 X194.2 Y162.521 E155.03774
G1 F2700 E150.03774
G0 F9000 X194.2 Y164.784
G1 F2700 E155.03774
G1 F1125 X105.801 Y76.385 E165.01698
G1 F2700 E160.01698
G0 F9000 X105.801 Y78.648
G1 F2700 E165.01698
G1 F1125 X194.2 Y167.047 E174.99623
G1 F2700 E169.99623
G0 F9000 X194.2 Y169.31
G1 F2700 E174.99623
G1 F1125 X105.801 Y80.911 E184.97547
G1 F2700 E179.97547
G0 F9000 X105.801 Y83.173
G1 F2700 E184.97547
G1 F1125 X194.2 Y171.572 E194.95471
G1 F2700 E189.95471
G0 F9000 X194.2 Y173.835
G1 F2700 E194.95471
G1 F1125 X105.801 Y85.436 E204.93396
G1 F2700 E199.93396
G0 F9000 X105.801 Y87.699
G1 F2700 E204.93396
G1 F1125 X194.2 Y176.098 E214.9132
G1 F2700 E209.9132
G0 F9000 X194.2 Y178.361
G1 F2700 E214.9132
G1 F1125 X105.801 Y89.962 E224.89244
G1 F2700 E219.89244
G0 F9000 X105.802 Y92.225
G1 F2700 E224.89244
G1 F1125 X194.2 Y180.623 E234.87157
G1 F2700 E229.87157
G0 F9000 X194.2 Y182.886
G1 F2700 E234.87157
G1 F1125 X105.802 Y94.488 E244.8507
G1 F2700 E239.8507
G0 F9000 X105.802 Y96.751
G1 F2700 E244.8507
G1 F1125 X194.2 Y185.149 E254.82983
G1 F2700 E249.82983
G0 F9000 X194.2 Y187.412
G1 F2700 E254.82983
G1 F1125 X105.802 Y99.013 E264.80902
G1 F2700 E259.80902
G0 F9000 X105.802 Y101.276
G1 F2700 E264.80902
G1 F1125 X194.2 Y189.674 E274.78815
G1 F2700 E269.78815
G0 F9000 X194.2 Y191.937
G1 F2700 E274.78815
G1 F1125 X105.802 Y103.539 E284.76728
G1 F2700 E279.76728
G0 F9000 X105.802 Y105.802
G1 F2700 E284.76728
G1 F1125 X194.2 Y194.2 E294.74641
G1 F2700 E289.74641
G0 F9000 X194.2 Y196.463
G1 F2700 E294.74641
G1 F1125 X105.802 Y108.065 E304.72554
G1 F2700 E299.72554
G0 F9000 X105.802 Y110.328
G1 F2700 E304.72554
G1 F1125 X194.2 Y198.725 E314.70461
G1 F2700 E309.70461
G0 F9000 X194.2 Y200.988
G1 F2700 E314.70461
G1 F1125 X105.802 Y112.59 E324.68374
G1 F2700 E319.68374
G0 F9000 X105.802 Y114.853
G1 F2700 E324.68374
G1 F1125 X194.2 Y203.251 E334.66287
G1 F2700 E329.66287
G0 F9000 X194.2 Y205.514
G1 F2700 E334.66287
G1 F1125 X105.802 Y117.116 E344.642
G1 F2700 E339.642
G0 F9000 X105.802 Y119.379
G1 F2700 E344.642
G1 F1125 X194.2 Y207.776 E354.62108
G1 F2700 E349.62108
G0 F9000 X194.2 Y210.039
G1 F2700 E354.62108
G1 F1125 X105.803 Y121.642 E364.6001
G1 F2700 E359.6001
G0 F9000 X105.803 Y123.905
G1 F2700 E364.6001
G1 F1125 X194.2 Y212.302 E374.57911
G1 F2700 E369.57911
G0 F9000 X194.2 Y214.564
G1 F2700 E374.57911
G1 F1125 X105.803 Y126.168 E384.55807
G1 F2700 E379.55807
G0 F9000 X105.803 Y128.43
G1 F2700 E384.55807
G1 F1125 X194.2 Y216.827 E394.53709
G1 F2700 E389.53709
G0 F9000 X194.2 Y219.09
G1 F2700 E394.53709
G1 F1125 X105.803 Y130.693 E404.51611
G1 F2700 E399.51611
G0 F9000 X105.803 Y132.956
G1 F2700 E404.51611
G1 F1125 X194.2 Y221.353 E414.49513
G1 F2700 E409.49513
G0 F9000 X194.2 Y223.615
G1 F2700 E414.49513
G1 F1125 X105.804 Y135.219 E424.47403
G1 F2700 E419.47403
G0 F9000 X105.804 Y137.482
G1 F2700 E424.47403
G1 F1125 X194.2 Y225.878 E434.45293
G1 F2700 E429.45293
G0 F9000 X194.2 Y228.141
G1 F2700 E434.45293
G1 F1125 X105.804 Y139.745 E444.43184
G1 F2700 E439.43184
G0 F9000 X105.804 Y142.008
G1 F2700 E444.43184
G1 F1125 X194.2 Y230.404 E454.41074
G1 F2700 E449.41074
G0 F9000 X194.2 Y232.666
G1 F2700 E454.41074
G1 F1125 X105.804 Y144.27 E464.38965
G1 F2700 E459.38965
G0 F9000 X105.804 Y146.533
G1 F2700 E464.38965
G1 F1125 X194.2 Y234.929 E474.36855
G1 F2700 E469.36855
G0 F9000 X194.2 Y237.192
G1 F2700 E474.36855
G1 F1125 X105.804 Y148.796 E484.34746
G1 F2700 E479.34746
G0 F9000 X105.804 Y151.059
G1 F2700 E484.34746
G1 F1125 X194.2 Y239.455 E494.32636
G1 F2700 E489.32636
G0 F9000 X194.091 Y241.608
G1 F2700 E494.32636
G1 F1125 X105.804 Y153.322 E504.2929
G1 F2700 E499.2929
G0 F9000 X105.804 Y155.585
G1 F2700 E504.2929
G1 F1125 X193.739 Y243.52 E514.21977
G1 F2700 E509.21977
G0 F9000 X193.187 Y245.23
G1 F2700 E514.21977
G1 F1125 X105.804 Y157.847 E524.08431
G1 F2700 E519.08431
G0 F9000 X105.804 Y160.11
G1 F2700 E524.08431
G1 F1125 X192.47 Y246.775 E533.86787
G1 F2700 E528.86787
G0 F9000 X191.598 Y248.167
G1 F2700 E533.86787
G1 F1125 X105.804 Y162.373 E543.55303
G1 F2700 E538.55303
G0 F9000 X105.804 Y164.636
G1 F2700 E543.55303
G1 F1125 X190.603 Y249.434 E553.12582
G1 F2700 E548.12582
G0 F9000 X189.468 Y250.562
G1 F2700 E553.12582
G1 F1125 X105.805 Y166.899 E562.57042
G1 F2700 E557.57042
G0 F9000 X105.805 Y169.162
G1 F2700 E562.57042
G1 F1125 X188.213 Y251.57 E571.87335
G1 F2700 E566.87335
G0 F9000 X186.816 Y252.436
G1 F2700 E571.87335
G1 F1125 X105.805 Y171.425 E581.01857
G1 F2700 E576.01857
G0 F9000 X105.805 Y173.687
G1 F2700 E581.01857
G1 F1125 X185.282 Y253.165 E589.99068
G1 F2700 E584.99068
G0 F9000 X183.583 Y253.728
G1 F2700 E589.99068
G1 F1125 X105.805 Y175.95 E598.77093
G1 F2700 E593.77093
G0 F9000 X105.805 Y178.213
G1 F2700 E598.77093
G1 F1125 X181.686 Y254.094 E607.33704
G1 F2700 E602.33704
G0 F9000 X179.529 Y254.199
G1 F2700 E607.33704
G1 F1125 X105.806 Y180.476 E615.65952
G1 F2700 E610.65952
G0 F9000 X105.806 Y182.739
G1 F2700 E615.65952
G1 F1125 X177.266 Y254.199 E623.72655
G1 F2700 E618.72655
G0 F9000 X175.003 Y254.199
G1 F2700 E623.72655
G1 F1125 X105.806 Y185.002 E631.5381
G1 F2700 E626.5381
G0 F9000 X105.806 Y187.265
G1 F2700 E631.5381
G1 F1125 X172.741 Y254.199 E639.09425
G1 F2700 E634.09425
G0 F9000 X170.478 Y254.199
G1 F2700 E639.09425
G1 F1125 X105.806 Y189.527 E646.39498
G1 F2700 E641.39498
G0 F9000 X105.806 Y191.79
G1 F2700 E646.39498
G1 F1125 X168.214 Y254.199 E653.44019
G1 F2700 E648.44019
G0 F9000 X165.952 Y254.199
G1 F2700 E653.44019
G1 F1125 X105.806 Y194.053 E660.22999
G1 F2700 E655.22999
G0 F9000 X105.807 Y196.316
G1 F2700 E660.22999
G1 F1125 X163.689 Y254.199 E666.76427
G1 F2700 E661.76427
G0 F9000 X161.426 Y254.199
G1 F2700 E666.76427
G1 F1125 X105.807 Y198.579 E673.04308
G1 F2700 E668.04308
G0 F9000 X105.807 Y200.842
G1 F2700 E673.04308
G1 F1125 X159.163 Y254.198 E679.06637
G1 F2700 E674.06637
G0 F9000 X156.9 Y254.198
G1 F2700 E679.06637
G1 F1125 X105.807 Y203.104 E684.83424
G1 F2700 E679.83424
G0 F9000 X105.807 Y205.367
G1 F2700 E684.83424
G1 F1125 X154.637 Y254.198 E690.34665
G1 F2700 E685.34665
G0 F9000 X152.374 Y254.198
G1 F2700 E690.34665
G1 F1125 X105.807 Y207.63 E695.60359
G1 F2700 E690.60359
G0 F9000 X105.807 Y209.893
G1 F2700 E695.60359
G1 F1125 X150.112 Y254.198 E700.60512
G1 F2700 E695.60512
G0 F9000 X147.848 Y254.197
G1 F2700 E700.60512
G1 F1125 X105.807 Y212.156 E705.35107
G1 F2700 E700.35107
G0 F9000 X105.807 Y214.419
G1 F2700 E705.35107
G1 F1125 X145.586 Y254.197 E709.84162
G1 F2700 E704.84162
G0 F9000 X143.323 Y254.197
G1 F2700 E709.84162
G1 F1125 X105.807 Y216.682 E714.07669
G1 F2700 E709.07669
G0 F9000 X105.807 Y218.944
G1 F2700 E714.07669
G1 F1125 X141.06 Y254.197 E718.05635
G1 F2700 E713.05635
G0 F9000 X138.797 Y254.196
G1 F2700 E718.05635
G1 F1125 X105.807 Y221.207 E721.78049
G1 F2700 E716.78049
G0 F9000 X105.807 Y223.47
G1 F2700 E721.78049
G1 F1125 X136.534 Y254.196 E725.24917
G1 F2700 E720.24917
G0 F9000 X134.271 Y254.196
G1 F2700 E725.24917
G1 F1125 X105.808 Y225.733 E728.46231
G1 F2700 E723.46231
G0 F9000 X105.808 Y227.996
G1 F2700 E728.46231
G1 F1125 X132.008 Y254.196 E731.42
G1 F2700 E726.42
G0 F9000 X129.745 Y254.196
G1 F2700 E731.42
G1 F1125 X105.808 Y230.259 E734.12221
G1 F2700 E729.12221
G0 F9000 X105.808 Y232.521
G1 F2700 E734.12221
G1 F1125 X127.482 Y254.196 E736.56902
G1 F2700 E731.56902
G0 F9000 X125.219 Y254.196
G1 F2700 E736.56902
G1 F1125 X105.808 Y234.784 E738.76036
G1 F2700 E733.76036
G0 F9000 X105.808 Y237.047
G1 F2700 E738.76036
G1 F1125 X122.957 Y254.196 E740.69628
G1 F2700 E735.69628
G0 F9000 X120.694 Y254.196
G1 F2700 E740.69628
G1 F1125 X105.808 Y239.31 E742.37674
G1 F2700 E737.37674
G0 F9000 X105.906 Y241.67
G1 F2700 E742.37674
G1 F1125 X118.32 Y254.085 E743.7782
G1 F2700 E738.7782
G0 F9000 X115.39 Y253.417
G1 F2700 E743.7782
G1 F1125 X106.562 Y244.59 E744.77472
G1 F2700 E739.77472
G0 F9000 X105.136 Y244.934
G0 X105.62 Y246.207
G0 X106.606 Y248.115
G0 X107.336 Y249.213
G0 X108.66 Y250.803
G0 X109.641 Y251.745
G0 X111.649 Y253.29
G0 X112.859 Y253.965
G0 X113.96 Y254.469
G0 X115.599 Y255.029
G0 X117.615 Y255.479
G0 X118.948 Y255.626
G0 X180.724 Y255.643
G0 X182.759 Y255.417
G0 X184.096 Y255.115
G0 X186.059 Y254.442
G0 X187.265 Y253.874
G0 X189.018 Y252.804
G0 X190.105 Y251.967
G0 X191.604 Y250.519
G0 X192.478 Y249.462
G0 X193.29 Y248.352
G0 X193.965 Y247.141
G0 X194.682 Y245.448
G0 X195.305 Y243.326
G0 X195.615 Y241.205
G0 X195.629 Y240.866
G0 X195.665 Y137.631
G0 X194.2 Y137.631
G1 F2700 E744.77472
G1 F1125 X108.398 Y51.83 E754.46074
G1 F2700 E749.46074
G0 F9000 X109.392 Y50.561
G1 F2700 E754.46074
G1 F1125 X194.2 Y135.369 E764.0346
G1 F2700 E759.0346
G0 F9000 X194.2 Y133.106
G1 F2700 E764.0346
G1 F1125 X110.529 Y49.435 E773.4801
G1 F2700 E768.4801
G0 F9000 X111.784 Y48.428
G1 F2700 E773.4801
G1 F1125 X194.2 Y130.843 E782.78388
G1 F2700 E777.78388
G0 F9000 X194.2 Y128.58
G1 F2700 E782.78388
G1 F1125 X113.176 Y47.556 E791.93057
G1 F2700 E786.93057
G0 F9000 X114.715 Y46.833
G1 F2700 E791.93057
G1 F1125 X194.2 Y126.318 E800.90352
G1 F2700 E795.90352
G0 F9000 X194.2 Y124.055
G1 F2700 E800.90352
G1 F1125 X116.412 Y46.267 E809.6849
G1 F2700 E804.6849
G0 F9000 X118.311 Y45.903
G1 F2700 E809.6849
G1 F1125 X194.2 Y121.792 E818.25191
G1 F2700 E813.25191
G0 F9000 X194.2 Y119.529
G1 F2700 E818.25191
G1 F1125 X120.478 Y45.808 E826.57423
G1 F2700 E821.57423
G0 F9000 X122.741 Y45.808
G1 F2700 E826.57423
G1 F1125 X194.2 Y117.267 E834.64114
G1 F2700 E829.64114
G0 F9000 X194.2 Y115.004
G1 F2700 E834.64114
G1 F1125 X125.004 Y45.808 E842.45258
G1 F2700 E837.45258
G0 F9000 X127.266 Y45.807
G1 F2700 E842.45258
G1 F1125 X194.2 Y112.741 E850.00867
G1 F2700 E845.00867
G0 F9000 X194.2 Y110.478
G1 F2700 E850.00867
G1 F1125 X129.529 Y45.807 E857.30929
G1 F2700 E852.30929
G0 F9000 X131.791 Y45.806
G1 F2700 E857.30929
G1 F1125 X194.2 Y108.216 E864.35461
G1 F2700 E859.35461
G0 F9000 X194.2 Y105.953
G1 F2700 E864.35461
G1 F1125 X134.053 Y45.806 E871.14453
G1 F2700 E866.14453
G0 F9000 X136.315 Y45.806
G1 F2700 E871.14453
G1 F1125 X194.2 Y103.69 E877.67903
G1 F2700 E872.67903
G0 F9000 X194.2 Y101.427
G1 F2700 E877.67903
G1 F1125 X138.578 Y45.806 E883.95806
G1 F2700 E878.95806
G0 F9000 X140.841 Y45.806
G1 F2700 E883.95806
G1 F1125 X194.2 Y99.165 E889.98169
G1 F2700 E884.98169
G0 F9000 X194.2 Y96.902
G1 F2700 E889.98169
G1 F1125 X143.103 Y45.805 E895.74996
G1 F2700 E890.74996
G0 F9000 X145.366 Y45.805
G1 F2700 E895.74996
G1 F1125 X194.2 Y94.639 E901.26276
G1 F2700 E896.26276
G0 F9000 X194.2 Y92.376
G1 F2700 E901.26276
G1 F1125 X147.628 Y45.804 E906.52021
G1 F2700 E901.52021
G0 F9000 X149.89 Y45.804
G1 F2700 E906.52021
G1 F1125 X194.2 Y90.114 E911.52231
G1 F2700 E906.52231
G0 F9000 X194.2 Y87.851
G1 F2700 E911.52231
G1 F1125 X152.153 Y45.804 E916.26894
G1 F2700 E911.26894
G0 F9000 X154.415 Y45.804
G1 F2700 E916.26894
G1 F1125 X194.2 Y85.588 E920.76016
G1 F2700 E915.76016
G0 F9000 X194.2 Y83.325
G1 F2700 E920.76016
G1 F1125 X156.678 Y45.804 E924.99591
G1 F2700 E919.99591
G0 F9000 X158.94 Y45.803
G1 F2700 E924.99591
G1 F1125 X194.2 Y81.063 E928.97636
G1 F2700 E923.97636
G0 F9000 X194.2 Y78.8
